static/img/kroki/3df25799c029d5a134244a562150bd2b.svg

<?xml version="1.0" encoding="us-ascii" standalone="no"?><svg xmlns="http://www.w3.org/2000/svg" xmlns:xlink="http://www.w3.org/1999/xlink" contentStyleType="text/css" height="374px" preserveAspectRatio="none" style="width:389px;height:374px;" version="1.1" viewBox="0 0 389 374" width="389px" zoomAndPan="magnify"><defs/><g><!--class digitalocean_resource--><g id="elem_digitalocean_resource"><rect codeLine="23" fill="#3D176E" height="39.7891" id="digitalocean_resource" rx="2.5" ry="2.5" style="stroke:#000D19;stroke-width:0.5;" width="223" x="7" y="167.79"/><ellipse cx="22" cy="187.6845" fill="#ADD1B2" rx="11" ry="11" style="stroke:#181818;stroke-width:1.0;"/><path d="M24.9688,193.3252 Q24.3906,193.622 23.75,193.7627 Q23.1094,193.9189 22.4063,193.9189 Q19.9063,193.9189 18.5781,192.2783 Q17.2656,190.622 17.2656,187.497 Q17.2656,184.372 18.5781,182.7158 Q19.9063,181.0595 22.4063,181.0595 Q23.1094,181.0595 23.75,181.2158 Q24.4063,181.372 24.9688,181.6689 L24.9688,184.3877 Q24.3438,183.8095 23.75,183.5439 Q23.1563,183.2627 22.5313,183.2627 Q21.1875,183.2627 20.5,184.3408 Q19.8125,185.4033 19.8125,187.497 Q19.8125,189.5908 20.5,190.6689 Q21.1875,191.7314 22.5313,191.7314 Q23.1563,191.7314 23.75,191.4658 Q24.3438,191.1845 24.9688,190.6064 L24.9688,193.3252 Z " fill="#000000"/><text fill="#D9B8FF" font-family="Helvetica" font-size="17" lengthAdjust="spacing" textLength="181" x="41" y="193.5698">digitalocean_resource</text></g><!--class digitalocean_snapshot--><g id="elem_digitalocean_snapshot"><rect codeLine="26" fill="#3D176E" height="39.7891" id="digitalocean_snapshot" rx="2.5" ry="2.5" style="stroke:#000D19;stroke-width:0.5;" width="227" x="107" y="328.58"/><ellipse cx="122" cy="348.4745" fill="#ADD1B2" rx="11" ry="11" style="stroke:#181818;stroke-width:1.0;"/><path d="M124.9688,354.1152 Q124.3906,354.412 123.75,354.5527 Q123.1094,354.7089 122.4063,354.7089 Q119.9063,354.7089 118.5781,353.0683 Q117.2656,351.412 117.2656,348.287 Q117.2656,345.162 118.5781,343.5058 Q119.9063,341.8495 122.4063,341.8495 Q123.1094,341.8495 123.75,342.0058 Q124.4063,342.162 124.9688,342.4589 L124.9688,345.1777 Q124.3438,344.5995 123.75,344.3339 Q123.1563,344.0527 122.5313,344.0527 Q121.1875,344.0527 120.5,345.1308 Q119.8125,346.1933 119.8125,348.287 Q119.8125,350.3808 120.5,351.4589 Q121.1875,352.5214 122.5313,352.5214 Q123.1563,352.5214 123.75,352.2558 Q124.3438,351.9745 124.9688,351.3964 L124.9688,354.1152 Z " fill="#000000"/><text fill="#D9B8FF" font-family="Helvetica" font-size="17" lengthAdjust="spacing" textLength="185" x="141" y="354.3598">digitalocean_snapshot</text></g><!--class resource--><g id="elem_resource"><rect codeLine="29" fill="#3D176E" height="39.7891" id="resource" rx="2.5" ry="2.5" style="stroke:#000D19;stroke-width:0.5;" width="113" x="164" y="7"/><ellipse cx="179" cy="26.8945" fill="#ADD1B2" rx="11" ry="11" style="stroke:#181818;stroke-width:1.0;"/><path d="M181.9688,32.5352 Q181.3906,32.832 180.75,32.9727 Q180.1094,33.1289 179.4063,33.1289 Q176.9063,33.1289 175.5781,31.4883 Q174.2656,29.832 174.2656,26.707 Q174.2656,23.582 175.5781,21.9258 Q176.9063,20.2695 179.4063,20.2695 Q180.1094,20.2695 180.75,20.4258 Q181.4063,20.582 181.9688,20.8789 L181.9688,23.5977 Q181.3438,23.0195 180.75,22.7539 Q180.1563,22.4727 179.5313,22.4727 Q178.1875,22.4727 177.5,23.5508 Q176.8125,24.6133 176.8125,26.707 Q176.8125,28.8008 177.5,29.8789 Q178.1875,30.9414 179.5313,30.9414 Q180.1563,30.9414 180.75,30.6758 Q181.3438,30.3945 181.9688,29.8164 L181.9688,32.5352 Z " fill="#000000"/><text fill="#D9B8FF" font-family="Helvetica" font-size="17" lengthAdjust="spacing" textLength="71" x="198" y="32.7798">resource</text></g><!--class snapshot--><g id="elem_snapshot"><rect codeLine="32" fill="#3D176E" height="39.7891" id="snapshot" rx="2.5" ry="2.5" style="stroke:#000D19;stroke-width:0.5;" width="117" x="265" y="167.79"/><ellipse cx="280" cy="187.6845" fill="#ADD1B2" rx="11" ry="11" style="stroke:#181818;stroke-width:1.0;"/><path d="M282.9688,193.3252 Q282.3906,193.622 281.75,193.7627 Q281.1094,193.9189 280.4063,193.9189 Q277.9063,193.9189 276.5781,192.2783 Q275.2656,190.622 275.2656,187.497 Q275.2656,184.372 276.5781,182.7158 Q277.9063,181.0595 280.4063,181.0595 Q281.1094,181.0595 281.75,181.2158 Q282.4063,181.372 282.9688,181.6689 L282.9688,184.3877 Q282.3438,183.8095 281.75,183.5439 Q281.1563,183.2627 280.5313,183.2627 Q279.1875,183.2627 278.5,184.3408 Q277.8125,185.4033 277.8125,187.497 Q277.8125,189.5908 278.5,190.6689 Q279.1875,191.7314 280.5313,191.7314 Q281.1563,191.7314 281.75,191.4658 Q282.3438,191.1845 282.9688,190.6064 L282.9688,193.3252 Z " fill="#000000"/><text fill="#D9B8FF" font-family="Helvetica" font-size="17" lengthAdjust="spacing" textLength="75" x="299" y="193.5698">snapshot</text></g><!--reverse link resource to digitalocean_resource--><g id="link_resource_digitalocean_resource"><path codeLine="35" d="M198.4699,62.1935 C178.8599,92.7135 150.48,136.9 130.85,167.46 " fill="none" id="resource-backto-digitalocean_resource" style="stroke:#FFAF37;stroke-width:2.0;"/><polygon fill="none" points="208.2,47.05,193.4221,58.9501,203.5177,65.4368,208.2,47.05" style="stroke:#FFAF37;stroke-width:2.0;"/></g><!--reverse link digitalocean_resource to digitalocean_snapshot--><g id="link_digitalocean_resource_digitalocean_snapshot"><path codeLine="36" d="M140.5301,222.9835 C160.1401,253.5035 188.52,297.69 208.15,328.25 " fill="none" id="digitalocean_resource-backto-digitalocean_snapshot" style="stroke:#FFAF37;stroke-width:2.0;"/><polygon fill="none" points="130.8,207.84,135.4823,226.2268,145.5779,219.7401,130.8,207.84" style="stroke:#FFAF37;stroke-width:2.0;"/></g><!--reverse link snapshot to digitalocean_snapshot--><g id="link_snapshot_digitalocean_snapshot"><path codeLine="37" d="M301.2834,222.9406 C281.4834,253.4606 252.79,297.69 232.97,328.25 " fill="none" id="snapshot-backto-digitalocean_snapshot" style="stroke:#FFAF37;stroke-width:2.0;"/><polygon fill="none" points="311.08,207.84,296.2499,219.675,306.317,226.2061,311.08,207.84" style="stroke:#FFAF37;stroke-width:2.0;"/></g><!--reverse link resource to snapshot--><g id="link_resource_snapshot"><path codeLine="38" d="M242.7166,62.1506 C262.5166,92.6706 291.21,136.9 311.03,167.46 " fill="none" id="resource-backto-snapshot" style="stroke:#FFAF37;stroke-width:2.0;"/><polygon fill="none" points="232.92,47.05,237.683,65.4161,247.7501,58.885,232.92,47.05" style="stroke:#FFAF37;stroke-width:2.0;"/></g><!--SRC=[XT1DRy8m30RWUtz59CwLoj1MAkq2IDDsGTFOVJADqqPjayfnXzZ7VzyOemfjALVxYVqwkPOeiAfvBogijaWkS8KsDH1KOa5aTojRMX8JfK3DucxpmHg-2jPGeNZ4yXrPfz0LhxbE2uFEYHkljOIqoCWsHXx7Cu5nloqqxAbL2Sujc4bl6qOlZ4osSwMwiZjqCfFJ-0vxp994-YTH5CbfqYLNLutUtOgD_a0nzJzjRHbxCNih_jHeoeFmGlOEFVKlPdm6ARN9nArNUpbc8eDqLj_a8Etke1MKpb_Z60ajxsjSzQx2P2vLF8YVBk4WFNoTa3hJ3ALD4SmReRCDfIW-W-1x23W3jSij-s3eqRbhnVrN68R3AuFX80ClJhE3TiaOwangwpy0]--></g></svg>

<svg xmlns="http://www.w3.org/2000/svg" width="389" height="374" viewBox="0 0 389 374"><rect width="223" height="39.789" x="7" y="167.79" fill="#3D176E" rx="2.5" ry="2.5" style="stroke:#000d19;stroke-width:.5"/><circle cx="22" cy="187.685" r="11" fill="#ADD1B2" style="stroke:#181818;stroke-width:1"/><path d="M24.969 193.325q-.578.297-1.219.438-.64.156-1.344.156-2.5 0-3.828-1.64-1.312-1.657-1.312-4.782t1.312-4.781q1.328-1.656 3.828-1.656.703 0 1.344.156.656.156 1.219.453v2.719q-.625-.578-1.219-.844-.594-.281-1.219-.281-1.343 0-2.031 1.078-.687 1.062-.687 3.156t.687 3.172q.688 1.062 2.031 1.062.625 0 1.219-.265.594-.281 1.219-.86z"/><text x="41" y="193.57" fill="#D9B8FF" font-family="Helvetica" font-size="17" textLength="181">digitalocean_resource</text><rect width="227" height="39.789" x="107" y="328.58" fill="#3D176E" rx="2.5" ry="2.5" style="stroke:#000d19;stroke-width:.5"/><circle cx="122" cy="348.474" r="11" fill="#ADD1B2" style="stroke:#181818;stroke-width:1"/><path d="M124.969 354.115q-.578.297-1.219.438-.64.156-1.344.156-2.5 0-3.828-1.64-1.312-1.657-1.312-4.782t1.312-4.781q1.328-1.656 3.828-1.656.703 0 1.344.156.656.156 1.219.453v2.719q-.625-.579-1.219-.844-.594-.281-1.219-.281-1.344 0-2.031 1.078-.687 1.062-.687 3.156t.687 3.172q.688 1.062 2.031 1.062.625 0 1.219-.265.594-.281 1.219-.86z"/><text x="141" y="354.36" fill="#D9B8FF" font-family="Helvetica" font-size="17" textLength="185">digitalocean_snapshot</text><rect width="113" height="39.789" x="164" y="7" fill="#3D176E" rx="2.5" ry="2.5" style="stroke:#000d19;stroke-width:.5"/><circle cx="179" cy="26.895" r="11" fill="#ADD1B2" style="stroke:#181818;stroke-width:1"/><path d="M181.969 32.535q-.578.297-1.219.438-.64.156-1.344.156-2.5 0-3.828-1.64-1.312-1.657-1.312-4.782t1.312-4.781q1.328-1.656 3.828-1.656.703 0 1.344.156.656.156 1.219.453v2.719q-.625-.578-1.219-.844-.594-.281-1.219-.281-1.344 0-2.031 1.078-.687 1.062-.687 3.156t.687 3.172q.688 1.062 2.031 1.062.625 0 1.219-.265.594-.281 1.219-.86z"/><text x="198" y="32.78" fill="#D9B8FF" font-family="Helvetica" font-size="17" textLength="71">resource</text><rect width="117" height="39.789" x="265" y="167.79" fill="#3D176E" rx="2.5" ry="2.5" style="stroke:#000d19;stroke-width:.5"/><circle cx="280" cy="187.685" r="11" fill="#ADD1B2" style="stroke:#181818;stroke-width:1"/><path d="M282.969 193.325q-.578.297-1.219.438-.64.156-1.344.156-2.5 0-3.828-1.64-1.312-1.657-1.312-4.782t1.312-4.781q1.328-1.656 3.828-1.656.703 0 1.344.156.656.156 1.219.453v2.719q-.625-.578-1.219-.844-.594-.281-1.219-.281-1.344 0-2.031 1.078-.687 1.062-.687 3.156t.687 3.172q.688 1.062 2.031 1.062.625 0 1.219-.265.594-.281 1.219-.86z"/><text x="299" y="193.57" fill="#D9B8FF" font-family="Helvetica" font-size="17" textLength="75">snapshot</text><path fill="none" d="M198.47 62.194c-19.61 30.52-47.99 74.706-67.62 105.266M208.2 47.05l-14.778 11.9 10.096 6.487zm-67.67 175.934c19.61 30.52 47.99 74.706 67.62 105.266M130.8 207.84l4.682 18.387 10.096-6.487z" style="stroke:#ffaf37;stroke-width:2"/><g fill="none"><path d="M301.283 222.94c-19.8 30.52-48.493 74.75-68.313 105.31" style="stroke:#ffaf37;stroke-width:2"/><path d="m311.08 207.84-14.83 11.835 10.067 6.531z" style="stroke:#ffaf37;stroke-width:2"/></g><g fill="none"><path d="M242.717 62.15c19.8 30.52 48.493 74.75 68.313 105.31" style="stroke:#ffaf37;stroke-width:2"/><path d="m232.92 47.05 4.763 18.366 10.067-6.531z" style="stroke:#ffaf37;stroke-width:2"/></g></svg>
